public/logos/stussy-crown.svg

<svg fill="none" height="20" viewBox="0 0 21.0048 19.6899" width="21" xmlns="http://www.w3.org/2000/svg"><path d="m20.0192 17.7267c-.125 0-.2451.0241-.3534.0674l-3.3437-5.4518-3.6731 2.7283 1.5072-9.06066c.0529.00722.1058.01444.1587.01444.5409 0 .9808-.44028.9808-.98161s-.4399-.98161-.9808-.98161-.9808.44028-.9808.98161c0 .35607.19.66643.4712.83726l-3.2813 7.29227-1.60576-11.23796c.4303-.10345.7476-.4908.7476-.952734 0-.541328-.43988-.981606-.98077-.981606-.54081 0-.98076.440278-.98076.981606 0 .483594.35096.885374.81014.964774l-1.06975 11.25482-3.38461-7.01079c.28366-.17083.47356-.48361.47356-.83968 0-.54133-.4399-.98161-.98077-.98161-.54086 0-.98077.44028-.98077.98161s.43991.98162.98077.98162c.06251 0 .1226-.00722.1827-.01686l1.47596 8.41101-3.53846-4.8166c.17788-.17804.28846-.42341.28846-.6953 0-.54134-.43991-.98162-.980768-.98162-.540868 0-.980772.44028-.980772.98162s.439904.9816.980772.9816c.091348 0 .180288-.0144.264418-.0361-.00481.0072 0 .0097.00962.0048l3.83413 8.8634h7.21876l3.673-4.2104 3.315 3.2336c-.1563.1732-.2524.4042-.2524.6568 0 .5414.4398.9816.9807.9816s.9808-.4402.9808-.9816c0-.5413-.4399-.9816-.9808-.9816z" fill="#fff"/></svg>

<svg width="21" height="20" viewBox="0 0 21.0048 19.6899" fill="none" xmlns="http://www.w3.org/2000/svg">
<g id="Group">
<path id="Vector" d="M20.0192 17.7267C19.8942 17.7267 19.7741 17.7508 19.6658 17.7941L16.3221 12.3423L12.649 15.0706L14.1562 6.00994C14.2091 6.01716 14.262 6.02438 14.3149 6.02438C14.8558 6.02438 15.2957 5.5841 15.2957 5.04277C15.2957 4.50144 14.8558 4.06116 14.3149 4.06116C13.774 4.06116 13.3341 4.50144 13.3341 5.04277C13.3341 5.39884 13.5241 5.7092 13.8053 5.88003L10.524 13.1723L8.91824 1.93434C9.34854 1.83089 9.66584 1.44354 9.66584 0.981606C9.66584 0.440278 9.22596 0 8.68507 0C8.14426 0 7.70431 0.440278 7.70431 0.981606C7.70431 1.4652 8.05527 1.86698 8.51445 1.94638L7.4447 13.2012L4.06009 6.19041C4.34375 6.01958 4.53365 5.7068 4.53365 5.35073C4.53365 4.8094 4.09375 4.36912 3.55288 4.36912C3.01202 4.36912 2.57211 4.8094 2.57211 5.35073C2.57211 5.89206 3.01202 6.33235 3.55288 6.33235C3.61539 6.33235 3.67548 6.32513 3.73558 6.31549L5.21154 14.7265L1.67308 9.9099C1.85096 9.73186 1.96154 9.48649 1.96154 9.2146C1.96154 8.67326 1.52163 8.23298 0.980772 8.23298C0.439904 8.23298 0 8.67326 0 9.2146C0 9.75594 0.439904 10.1962 0.980772 10.1962C1.07212 10.1962 1.16106 10.1818 1.24519 10.1601C1.24038 10.1673 1.24519 10.1698 1.25481 10.1649L5.08894 19.0283H12.3077L15.9807 14.8179L19.2957 18.0515C19.1394 18.2247 19.0433 18.4557 19.0433 18.7083C19.0433 19.2497 19.4831 19.6899 20.024 19.6899C20.5649 19.6899 21.0048 19.2497 21.0048 18.7083C21.0048 18.167 20.5649 17.7267 20.024 17.7267H20.0192Z" fill="white"/>
</g>
</svg>
